img/yt.svg

<svg viewBox="0 0 31 27" fill="none" xmlns="http://www.w3.org/2000/svg">
    <g clip-path="url(#clip0_805:270)">
        <path d="M29.3892 4.06376C28.2939 2.75261 26.2717 2.21777 22.4096 2.21777H8.3905C4.44009 2.21777 2.38358 2.7871 1.2924 4.183C0.228516 5.54404 0.228516 7.54941 0.228516 10.3249V15.6149C0.228516 20.9919 1.4908 23.722 8.3905 23.722H22.4096C25.7588 23.722 27.6146 23.2501 28.8153 22.0928C30.0466 20.9064 30.5719 18.969 30.5719 15.6149V10.3249C30.5719 7.39791 30.4896 5.38072 29.3892 4.06376ZM19.7091 13.7002L13.343 17.0506C13.2007 17.1256 13.0451 17.1627 12.8896 17.1627C12.7136 17.1627 12.538 17.115 12.3825 17.0202C12.0897 16.8415 11.9108 16.5218 11.9108 16.177V9.4977C11.9108 9.15348 12.0892 8.83414 12.3814 8.65533C12.6738 8.47654 13.0374 8.46432 13.3408 8.623L19.7069 11.9518C20.0308 12.1212 20.2341 12.4579 20.2346 12.8252C20.2351 13.1929 20.0325 13.5301 19.7091 13.7002Z" fill="#FEFEFE" />
    </g>
    <defs>
        <clipPath id="clip0_805:270">
            <rect width="30.4911" height="25.5882" fill="white" transform="translate(0.228516 0.707031)" />
        </clipPath>
    </defs>
</svg>

<svg viewBox="0 0 31 27" fill="none" xmlns="http://www.w3.org/2000/svg"><g clip-path="url(#a)"><path d="M29.39 4.064c-1.096-1.311-3.118-1.846-6.98-1.846H8.39c-3.95 0-6.006.57-7.098 1.965C.23 5.544.23 7.549.23 10.325v5.29c0 5.377 1.262 8.107 8.162 8.107H22.41c3.349 0 5.205-.472 6.405-1.63 1.232-1.186 1.757-3.123 1.757-6.477v-5.29c0-2.927-.082-4.944-1.183-6.261ZM19.71 13.7l-6.367 3.35a.971.971 0 0 1-.96-.03.987.987 0 0 1-.472-.843v-6.68c0-.344.178-.663.47-.842a.973.973 0 0 1 .96-.032l6.366 3.329a.986.986 0 0 1 .002 1.748Z" fill="#000"/></g><defs><clipPath id="a"><path fill="#fff" transform="translate(.229 .707)" d="M0 0h30.491v25.588H0z"/></clipPath></defs></svg>
